X:14
T:Jean Ireland
M:6/8
L:1/8
C:Jimmy Shand
R:Jig
K:A
cB|"A"AEE "D"AFF|"A"AEE EAB|"F#m"cff ecA|"D"cBB "E7"BcB|"A"AEE "D"FDD|
"A"EFE EAB|!
"F#m"cef "E7"ecB|"A"cAA A2:||g|"A"aAA "D"fAA|"A"efe "E"efg|
"A"aAA "D"fAA|"Bm"edc "E7"B2A|!"A"aAA "D"fAA|"A"efe "E"efg|"D"aec "E7"dc
B|"A"cAA A2g|
"A"aAA "D"fAA|"A"efe "E"efg|!"A"aAA "F#m"fed|"B7"cBA "E7"B2 c/B/|"A"AEE
"D"FDD|"A"EFE EAB|
"F#m"cef "E7"edcB|"A"cAA A2||
